X: 53
T: Sandy Macleod of Garafad
C:Phil Cunningham
M:C
L:1/8
K:D
eAea f2 ef| g2 dB GABG|eAea f2 ef|1 gBdc AA A2 :|2gBdc AAAB||
|GAAB g2 Ag|fefd edBd|GAAB gAAg|1 faec d4 :|2faec ddde||
|fefa d2 ef| g2 dB GABG|fefa d2 ef|1gBdc AA A2 :|2gBdc AA A2 ||

%%sep 2 1 500

